/*
当面の目標 - チュートリアルのコードを動くようにする
https://sakuramml.com/doc/faq/faq02.htm#1
*/

// test
Int V=(1+2*3)*10
PRINT(V)
Str AA = {cdeg}

PRINT(AA)
AA;

/*
TR(1) l4 cdef | gfed | c^^^
v50q100
c4,-%10,+50
*/
/*
p%0 [4 cde:f ] g
TR(1) l4 n63,4^^^ cdef g^^^
*/


